X: 34990
T: Roffes-Pärs Polska
R: waltz
M: 3/4
K: Dmajor
|:A2 A6/B|AF D3A,|G,B, A,3A,|G,B, A,3E-|
ED EF GA|GF ED B,A,|B,D2B, CE|D2 D4:|
|:BA Bc dB|GF GA BG|FA- AF ED|1 EF ED CA,:|2 C2 D4||
|:B,A, B,C DB,-|B,A, B,C DB,|CB, CD EC-|CB, CD EC|
DE FD EF|GG- GG- GG|G6:|

